icon/hi/chat-outline.svg

<svg viewBox="0 0 24 24" fill="none" xmlns="http://www.w3.org/2000/svg" height="1em" width="1em">
  <path d="M8 12H8.01M12 12H12.01M16 12H16.01M21 12C21 16.4183 16.9706 20 12 20C10.4607 20 9.01172 19.6565 7.74467 19.0511L3 20L4.39499 16.28C3.51156 15.0423 3 13.5743 3 12C3 7.58172 7.02944 4 12 4C16.9706 4 21 7.58172 21 12Z" stroke="#4A5568" stroke-width="2" stroke-linecap="round" stroke-linejoin="round"/>
</svg>

<svg width="24" height="24" fill="none" xmlns="http://www.w3.org/2000/svg"><path d="M8 12h.01M12 12h.01M16 12h.01M21 12c0 4.418-4.03 8-9 8a9.863 9.863 0 0 1-4.255-.949L3 20l1.395-3.72C3.512 15.042 3 13.574 3 12c0-4.418 4.03-8 9-8s9 3.582 9 8Z" stroke="#4A5568" stroke-width="2" stroke-linecap="round" stroke-linejoin="round"/></svg>
